ibt/assets/img/icons/adv-2-ico.svg

<svg width="70" height="70" viewBox="0 0 70 70" fill="none" xmlns="http://www.w3.org/2000/svg">
<path d="M54.8415 6.18917L54.8987 6.15183L53.3552 5.19983C53.2642 5.14383 53.1685 5.09717 53.0775 5.04117C52.5712 4.7355 52.0567 4.44267 51.534 4.1615C51.2692 4.01917 51.0008 3.885 50.7325 3.74967C50.3393 3.55017 49.9415 3.36 49.5402 3.17567C49.3033 3.06717 49.0677 2.95633 48.8297 2.85367C48.2055 2.58417 47.5743 2.331 46.9327 2.09767C46.8008 2.04983 46.6667 2.009 46.5337 1.96233C45.9725 1.76633 45.4043 1.58433 44.8315 1.41633C44.6483 1.36267 44.4652 1.31017 44.2808 1.26C43.6462 1.085 43.0045 0.925167 42.3558 0.786333C42.294 0.7735 42.2345 0.757167 42.1727 0.744333C41.4552 0.593833 40.7295 0.470167 39.9968 0.365167C39.8358 0.341833 39.6725 0.324333 39.5115 0.303333C38.9387 0.229833 38.3623 0.169167 37.7813 0.123667C37.5853 0.1085 37.3905 0.091 37.1945 0.0793333C36.4677 0.0303333 35.7373 0 35 0C34.2032 0 33.4157 0.0361667 32.6317 0.0886667C32.4263 0.102667 32.2222 0.117833 32.0168 0.135333C31.2807 0.197167 30.5492 0.2765 29.8258 0.385C29.7535 0.3955 29.6812 0.404833 29.6088 0.415333C28.8808 0.5285 28.1622 0.670833 27.4505 0.828333C27.2148 0.879667 26.9803 0.9345 26.7458 0.991667C26.0902 1.15033 25.4415 1.32417 24.801 1.519C24.598 1.58083 24.3973 1.6485 24.1967 1.71383C23.6227 1.9005 23.0545 2.10233 22.4945 2.31817C22.2378 2.41617 21.9812 2.5165 21.7268 2.6215C21.0828 2.88633 20.4458 3.164 19.8217 3.46617C19.6163 3.56533 19.4145 3.67617 19.2103 3.78C18.7227 4.02733 18.242 4.28517 17.7683 4.55467C17.5315 4.68883 17.2958 4.82183 17.0613 4.96183C16.4687 5.31767 15.8865 5.68867 15.3172 6.07717C15.239 6.13083 15.1562 6.17517 15.0792 6.23L14.4433 6.671L14.4492 6.69667C5.7015 13.0632 0 23.3753 0 35C0 54.299 15.701 70 35 70C54.299 70 70 54.299 70 35C70 23.0638 63.9893 12.509 54.8415 6.18917ZM17.6038 7.371C17.9807 7.133 18.3622 6.90317 18.7472 6.6815C18.9607 6.55783 19.1718 6.43067 19.3888 6.31167C19.9302 6.01533 20.4797 5.73883 21.035 5.47517C21.2753 5.36083 21.518 5.25467 21.7618 5.14617C22.169 4.96533 22.5785 4.79383 22.9915 4.62933C23.219 4.53833 23.4453 4.44383 23.6763 4.35867C24.2667 4.13933 24.864 3.93867 25.466 3.7555C25.6865 3.68783 25.9117 3.62833 26.1345 3.56533C26.6023 3.4335 27.0725 3.311 27.5473 3.20017C27.7597 3.15 27.972 3.0975 28.1855 3.052C28.8377 2.91317 29.4945 2.79183 30.156 2.69267C30.3065 2.6705 30.4593 2.65533 30.6098 2.63433C31.1675 2.55967 31.7287 2.499 32.2922 2.45233C32.4882 2.436 32.6853 2.41967 32.8825 2.40683C33.586 2.36483 34.2907 2.33333 35 2.33333C35.6172 2.33333 36.2332 2.35433 36.8468 2.38933C37.023 2.39867 37.1968 2.41617 37.3718 2.429C37.814 2.46167 38.2562 2.499 38.696 2.54917C38.8908 2.57133 39.0845 2.59817 39.2782 2.62383C39.704 2.67983 40.1275 2.74283 40.5498 2.81633C40.7377 2.849 40.9243 2.88167 41.111 2.91667C41.5508 3.00067 41.9883 3.09517 42.4235 3.19667C42.5845 3.234 42.7467 3.269 42.9065 3.30867C43.4432 3.44283 43.9763 3.58983 44.5048 3.75083C44.5585 3.76717 44.6133 3.78 44.667 3.79633C45.2317 3.97133 45.7893 4.165 46.3435 4.36917C46.5652 4.452 46.7822 4.54183 47.0015 4.62933C47.3235 4.7565 47.6432 4.886 47.9617 5.02367C48.237 5.14383 48.51 5.2675 48.7818 5.39467C49.0268 5.509 49.2695 5.62683 49.5122 5.747C49.6895 5.83333 49.8668 5.9255 50.043 6.01767C45.584 7.805 42.8143 9.99483 39.7145 14.028C39.2747 14.5985 39.0518 15.2973 39.0717 15.995C38.8045 15.351 38.4125 14.861 37.8898 14.518C36.8095 13.8087 35.3955 13.8588 33.5697 14.6732L33.2372 14.7105C30.8968 14.9718 29.6077 15.1165 29.491 17.6622C29.4315 18.9502 30.1222 20.2218 31.2503 20.9008C31.5362 21.0723 31.836 21.1972 32.1417 21.273C32.1743 21.3838 32.2257 21.497 32.3015 21.6113L32.7717 22.2612L33.5218 22.1363C34.1635 22.0278 34.7025 22.0045 35.0677 22.015C35.0128 22.533 35.1038 23.0627 35.3372 23.5352C35.6615 24.1908 36.2192 24.6692 36.9075 24.8815C37.5655 25.0845 37.6227 25.2817 37.702 25.5535C38.0765 26.8427 38.9282 27.7958 40.0388 28.1657C41.1005 28.5215 42.28 28.2917 43.2798 27.5415C43.8795 27.0877 44.219 27.1822 45.5292 27.8157C46.3843 28.2287 47.4495 28.7443 48.8285 28.9217C49.0455 28.9485 49.175 29.0138 49.2228 29.064C50.1713 30.0603 50.8993 31.2993 51.6028 32.4975C52.6808 34.3327 53.6993 36.0675 55.4517 36.9763C56.8225 37.6892 55.2872 41.713 54.551 43.6462C54.4028 44.0358 54.264 44.3987 54.1485 44.723C52.3705 46.0927 51.2843 47.6478 50.2332 49.1528C49.2917 50.5003 48.3187 51.8945 46.8102 53.1918C44.5317 55.153 42.6043 56.3278 40.3667 57.1235C39.9992 57.253 39.76 57.0348 39.6737 56.9333C39.592 56.8377 39.4217 56.5775 39.6037 56.252C41.9055 52.1313 44.5678 46.3202 41.1215 43.4677C37.7428 40.6723 36.4782 36.6135 37.8968 33.1298C38.5 31.6505 37.8268 29.9915 36.337 29.2122C36.2098 29.057 36.1188 28.3792 36.0593 27.93C35.9275 26.9442 35.7642 25.718 35.035 24.6482C34.7317 24.2048 34.188 23.8047 33.8135 23.6227C32.389 22.925 31.0217 22.7255 29.6998 22.5342C28.6475 22.3802 27.6523 22.2355 26.6373 21.847C22.7722 20.3642 20.0212 14.0933 18.0122 9.513C17.7252 8.85733 17.4487 8.2285 17.1827 7.63933C17.3215 7.55067 17.4627 7.46083 17.6038 7.371ZM35 67.6667C16.9878 67.6667 2.33333 53.0122 2.33333 35C2.33333 24.4102 7.4025 14.9847 15.2378 9.0125C15.4443 9.47567 15.6555 9.954 15.8748 10.4533C18.1697 15.6858 21.0257 22.197 25.8008 24.0287C27.0573 24.5105 28.2298 24.682 29.3627 24.8453C30.5597 25.0192 31.6902 25.1837 32.7892 25.7227C32.8778 25.7658 33.061 25.9082 33.1077 25.9665C33.5242 26.5778 33.6373 27.4225 33.7458 28.2392C33.8963 29.3662 34.0667 30.6437 35.2077 31.2468C35.5787 31.444 35.903 31.8407 35.7362 32.2502C33.9243 36.6975 35.4538 41.8063 39.634 45.2667C40.705 46.1533 41.216 48.5823 37.5667 55.1157C36.9658 56.1913 37.0942 57.4968 37.8922 58.4418C38.472 59.1267 39.2945 59.4977 40.1473 59.4977C40.481 59.4977 40.8193 59.4405 41.1495 59.3238C43.6753 58.4255 45.8232 57.1212 48.3327 54.9617C50.0652 53.473 51.1233 51.9575 52.1477 50.491C53.1813 49.0105 54.159 47.6117 55.7608 46.4322C55.9942 46.2618 56.1668 46.0297 56.259 45.7613C56.385 45.3927 56.5507 44.9587 56.7327 44.4803C57.932 41.335 59.745 36.5808 56.5297 34.909C55.3735 34.3082 54.5603 32.9233 53.6165 31.3192C52.8815 30.0673 52.0473 28.6487 50.9145 27.4563C50.4758 26.9955 49.8575 26.7027 49.1295 26.6082C48.1262 26.4798 47.3247 26.0913 46.5477 25.7157C45.2678 25.0962 43.673 24.3262 41.8798 25.676C41.6092 25.8802 41.1997 26.0913 40.7797 25.9537C40.4063 25.8288 40.1018 25.4462 39.9455 24.9048C39.7192 24.122 39.2467 23.1607 37.5982 22.652C37.5258 22.6287 37.4698 22.5785 37.4313 22.4992C37.38 22.3953 37.3742 22.267 37.4278 22.12C37.6483 21.5192 37.5573 20.9125 37.1782 20.454C36.7617 19.95 36.0185 19.691 34.9603 19.6747C34.9195 19.4915 34.8262 19.306 34.6535 19.1252L33.9453 18.4777L33.1497 18.9467C32.9432 19.0692 32.7098 19.054 32.4567 18.9C32.0647 18.6655 31.8045 18.1988 31.8243 17.7672C31.836 17.5 31.8535 17.3483 31.8687 17.2608C32.1545 17.1768 32.837 17.0998 33.4997 17.0263L34.2078 16.9458L34.3793 16.8665C35.4212 16.3823 36.2553 16.2353 36.61 16.4652C36.7535 16.5597 37.2155 17.0123 37.163 18.8872L37.1338 19.9232L38.1582 20.0748C39.4893 20.2743 40.4763 20.0142 41.0912 19.3083C41.727 18.578 41.8425 17.4942 41.4307 16.0872C41.3712 15.883 41.4237 15.6322 41.5648 15.449C44.793 11.249 47.502 9.31583 52.6575 7.5355C61.677 13.3583 67.6667 23.4897 67.6667 35C67.6667 53.0122 53.0122 67.6667 35 67.6667Z" fill="white"/>
</svg>

<svg width="70" height="70" fill="none" xmlns="http://www.w3.org/2000/svg"><path d="M54.842 6.19l.057-.038-1.544-.952c-.09-.056-.186-.103-.277-.159a35.783 35.783 0 00-1.544-.88c-.265-.142-.533-.276-.801-.411-.394-.2-.791-.39-1.193-.574-.237-.109-.472-.22-.71-.322a34.722 34.722 0 00-1.897-.756c-.132-.048-.266-.089-.4-.136A35.271 35.271 0 0042.357.786c-.062-.013-.122-.029-.183-.042a34.29 34.29 0 00-2.176-.379c-.161-.023-.325-.04-.486-.062a35.152 35.152 0 00-1.73-.18c-.196-.014-.39-.032-.587-.044A32.582 32.582 0 0035 0a35.373 35.373 0 00-2.983.135c-.736.062-1.468.142-2.191.25l-.217.03c-.728.113-1.447.256-2.159.413a34.837 34.837 0 00-2.65.69c-.202.063-.403.13-.603.196a33.81 33.81 0 00-1.703.604 34.31 34.31 0 00-2.673 1.148c-.205.1-.407.21-.61.314-.488.247-.969.505-1.443.775-.236.134-.472.267-.707.407-.592.356-1.175.727-1.744 1.115-.078.054-.16.098-.238.153l-.636.441.006.026C5.702 13.063 0 23.375 0 35c0 19.299 15.701 35 35 35s35-15.701 35-35c0-11.936-6.01-22.491-15.158-28.81zM17.604 7.37c.377-.238.758-.468 1.143-.69.214-.123.425-.25.642-.37.541-.296 1.09-.572 1.646-.836.24-.114.483-.22.727-.329.407-.18.816-.352 1.23-.517.227-.09.453-.185.684-.27.59-.22 1.188-.42 1.79-.603.22-.068.446-.128.668-.19a32.53 32.53 0 011.413-.366c.213-.05.425-.103.639-.148a32.87 32.87 0 011.97-.36c.15-.022.303-.037.454-.058a33.555 33.555 0 012.273-.227A35.488 35.488 0 0135 2.333c.617 0 1.233.021 1.847.056.176.01.35.027.525.04.442.033.884.07 1.324.12.195.022.389.05.582.075a30.931 30.931 0 011.833.293c.44.084.877.178 1.313.28.16.037.323.072.483.112.536.134 1.07.28 1.598.442.053.016.108.029.162.045.565.175 1.122.369 1.676.573.222.083.44.173.658.26.323.128.642.257.96.395a34.495 34.495 0 012.082.994c-4.459 1.787-7.229 3.977-10.328 8.01-.44.57-.663 1.27-.643 1.967-.268-.644-.66-1.134-1.182-1.477-1.08-.71-2.495-.66-4.32.155l-.333.037c-2.34.262-3.63.406-3.746 2.952-.06 1.288.631 2.56 1.76 3.239.285.171.585.296.89.372.033.11.085.224.16.338l.47.65.75-.125a8.124 8.124 0 011.547-.121 2.777 2.777 0 00.27 1.52 2.594 2.594 0 001.57 1.346c.657.203.715.4.794.672.375 1.29 1.226 2.243 2.337 2.613 1.061.355 2.241.126 3.24-.625.6-.453.94-.359 2.25.275.855.413 1.92.928 3.3 1.106.216.026.346.092.394.142.948.996 1.676 2.235 2.38 3.434 1.078 1.835 2.096 3.57 3.849 4.478 1.37.713-.165 4.737-.901 6.67-.148.39-.287.753-.403 1.077-1.778 1.37-2.864 2.925-3.915 4.43-.941 1.347-1.914 2.742-3.423 4.039-2.278 1.961-4.206 3.136-6.443 3.931a.612.612 0 01-.693-.19.579.579 0 01-.07-.681c2.302-4.12 4.964-9.932 1.517-12.784-3.378-2.796-4.643-6.855-3.224-10.338.603-1.48-.07-3.139-1.56-3.918-.127-.155-.218-.833-.278-1.282-.131-.986-.295-2.212-1.024-3.282-.303-.443-.847-.843-1.221-1.025-1.425-.698-2.792-.898-4.114-1.089-1.052-.154-2.048-.299-3.063-.687-3.865-1.483-6.616-7.754-8.625-12.334a165.79 165.79 0 00-.83-1.874l.422-.268zM35 67.667C16.988 67.667 2.333 53.012 2.333 35c0-10.59 5.07-20.015 12.905-25.988.206.464.418.942.637 1.441 2.295 5.233 5.15 11.744 9.926 13.576 1.256.482 2.429.653 3.562.816 1.197.174 2.327.339 3.426.878.089.043.272.185.319.244.416.61.53 1.456.638 2.272.15 1.127.32 2.405 1.462 3.008.37.197.695.594.528 1.003-1.812 4.447-.282 9.556 3.898 13.017 1.071.886 1.582 3.315-2.067 9.849a2.913 2.913 0 00.325 3.326 2.946 2.946 0 003.258.882c2.525-.898 4.673-2.203 7.183-4.362 1.732-1.489 2.79-3.005 3.815-4.471 1.033-1.48 2.011-2.88 3.613-4.059.233-.17.406-.402.498-.67.126-.37.292-.803.474-1.282 1.199-3.145 3.012-7.9-.203-9.571-1.157-.6-1.97-1.986-2.913-3.59-.735-1.252-1.57-2.67-2.703-3.863-.438-.46-1.056-.753-1.785-.848-1.003-.128-1.804-.517-2.581-.892-1.28-.62-2.875-1.39-4.668-.04-.27.204-.68.415-1.1.278-.374-.125-.678-.508-.834-1.05-.227-.782-.7-1.743-2.348-2.252a.277.277 0 01-.167-.153.472.472 0 01-.003-.379c.22-.6.13-1.207-.25-1.666-.416-.504-1.16-.763-2.218-.78a1.15 1.15 0 00-.306-.549l-.709-.647-.795.469c-.207.122-.44.107-.693-.047-.392-.234-.652-.701-.633-1.133a4.23 4.23 0 01.045-.506c.285-.084.968-.161 1.63-.235l.709-.08.171-.08c1.042-.484 1.876-.63 2.231-.4.144.094.605.546.553 2.421l-.03 1.036 1.025.152c1.331.2 2.318-.06 2.933-.767.636-.73.752-1.814.34-3.22a.744.744 0 01.134-.639c3.228-4.2 5.937-6.133 11.093-7.913C61.676 13.357 67.666 23.49 67.666 35c0 18.012-14.655 32.667-32.667 32.667z" fill="#fff"/></svg>
